X:1
T:Title
%%score { ( 1 3 ) | ( 2 4 ) }
L:1/8
M:2/4
K:G
V:1 treble nm="Grand Piano"
V:3 treble 
V:2 bass 
V:4 bass 
V:1
 z2 z[Q:1/4=100] [B,G] | [DB][DB] [CA][DB] | [B,G][B,G] [B,D]2 | G G2 G | %4
[M:9/16] A>[B,G][B,G]-[B,G]/[B,G] |[M:2/4] [DB][DB] [CA][DB] | [B,G][B,G] [B,D]2 | G G2 G | %8
 A>[B,G] [B,G]2 | z d3 | z d3 | BB AG/G/ |[M:11/16] [Fd]/-[Fd]/-[Fd]/-[Fd]/-[Fd]/-[Fd]-<[Fd][DG] | %13
[M:2/4] [DGB][DGB] [B,DG][B,D] | [CE] [EG]3 | B B2 G |[M:7/16] [CFA]>[B,DG][B,DG]3/2 |] %17
V:2
 z2 z [G,,G,] | [G,,G,][G,,G,] [G,,D,][G,,D,] | [G,,D,][G,,D,] [G,,G,]2 | %3
 [E,G,B,] [E,G,B,]2 [E,G,B,] |[M:9/16] [D,F,C]>[G,,G,][G,,G,]-[G,,G,]/[G,,G,] | %5
[M:2/4] [G,,G,][G,,G,] [G,,D,][G,,D,] | [G,,D,][G,,D,] [G,,G,]2 | [E,G,B,] [E,G,B,]2 [E,G,B,] | %8
 [D,F,C]>[G,,G,] [G,,G,]2 | z B,3 | z B,3 | [G,DG][G,DG][K:bass] [F,A,D].[E,A,^C] | %12
[M:11/16] [D,A,]/-[D,A,]/-[D,A,]/-[D,A,]/-[D,A,]/-[D,A,]-<[D,A,][G,B,] | %13
[M:2/4] [G,,G,][G,,G,] [G,,G,][G,,G,] | [C,G,] [C,G,]3 | [D,G,D] [D,G,D]2 [D,B,] | %16
[M:7/16] D,>G,,G,,3/2 |] %17
V:3
 x4 | x4 | x4 | x4 |[M:9/16] x9/2 |[M:2/4] x4 | x4 | x4 | x4 | .B2 GG | .e2 GG | x4 | %12
[M:11/16] x11/2 |[M:2/4] x4 | x4 | x4 |[M:7/16] x7/2 |] %17
V:4
 x4 | x4 | x4 | x4 |[M:9/16] x9/2 |[M:2/4] x4 | x4 | x4 | x4 | .G,2 G,G, | .C2 G,G, | %11
 x2[K:bass] x2 |[M:11/16] x11/2 |[M:2/4] x4 | x4 | x4 |[M:7/16] x7/2 |] %17

